X: 26878
T: Mink Ranchers
R: waltz
M: 3/4
K: Cmajor
G3/2F/|E3C EG|c2G2E2|Dz D^C DB|A4A^A|B2G2^F2|F2B2d2|
cd ed (3cBA|G4 FG|E3C EG|c2G2E2|Dz D^C DB|A4A^A|
K:FMaj
=B2G2^F2|F2 =B2 d2|c3 =B cd|c2=B2_B2|
K:Cmaj
A4 F2|C2F2A2|d2z2d2|c6|c2A2F2|C2F2A2|c2z3c2|_B6|
E3ED2|C2E2G2|d3zd2|c6|c2G2A2|_B2A2G2|1 A3G FD|C6|2 (F6|F6)||

